zondicons/svg/reply-all.svg

<svg width="20px" height="20px" viewBox="0 0 20 20" version="1.1" xmlns="http://www.w3.org/2000/svg" xmlns:xlink="http://www.w3.org/1999/xlink"><title>reply-all</title><desc>Created with Sketch.</desc><defs></defs><g id="Page-1" stroke="none" stroke-width="1" fill="none" fill-rule="evenodd"><g id="reply-all" fill="#000000"><path d="M18,17 L18,14.009763 C18,11.795232 16.2081782,10 13.9976305,10 L11,10 L11,15 L5,9 L11,3 L11,8 L13.9946916,8 C17.3113318,8 20,10.6930342 20,14 L20,17 L18,17 L18,17 Z M6,6 L6,3 L0,9 L6,15 L6,12 L3,9 L6,6 L6,6 Z" id="Combined-Shape"></path></g></g></svg>

<svg xmlns="http://www.w3.org/2000/svg" viewBox="0 0 20 20"><path d="M18 17v-2.99A4 4 0 0 0 14 10h-3v5L5 9l6-6v5h3a6 6 0 0 1 6 6v3h-2zM6 6V3L0 9l6 6v-3L3 9l3-3z"/></svg>
